svg/300/outlined/area_chart-fill.svg

<svg xmlns="http://www.w3.org/2000/svg" width="48" height="48" viewBox="0 -960 960 960"><path d="m819.999-273.846-346.46-270.691-159.616 220.615-173.922-138.999v-177.076l144.615 108.461 199.23-279.616 189.23 151.153h146.923v386.153Zm-679.998 93.845v-225.152l182.845 146.46 160-221 337.153 262.999v36.693H140.001Z"/></svg>

<svg xmlns="http://www.w3.org/2000/svg" width="48" height="48" viewBox="0 -960 960 960"><path d="M820-273.85 473.54-544.54 313.92-323.92 140-462.92V-640l144.62 108.46 199.23-279.61L673.08-660H820v386.15ZM140-180v-225.15l182.85 146.46 160-221 337.15 263V-180H140Z"/></svg>
